src/assets/svg/icons/fa/nuevos/classic/light/share-nodes classic light.svg

<svg xmlns="http://www.w3.org/2000/svg" viewBox="0 0 448 512"><!--! Font Awesome Pro 6.4.0 by @fontawesome - https://fontawesome.com License - https://fontawesome.com/license (Commercial License) Copyright 2023 Fonticons, Inc. --><path d="M448 112c0 44.2-35.8 80-80 80c-22.9 0-43.6-9.6-58.1-25l-151 75.5c.8 4.4 1.1 8.9 1.1 13.5s-.4 9.1-1.1 13.5l151 75.5c14.6-15.4 35.2-25 58.1-25c44.2 0 80 35.8 80 80s-35.8 80-80 80s-80-35.8-80-80c0-9.7 1.7-19 4.9-27.7L147.2 299.5c-14.3 22-39 36.5-67.2 36.5c-44.2 0-80-35.8-80-80s35.8-80 80-80c28.2 0 52.9 14.5 67.2 36.5l145.7-72.9c-3.2-8.6-4.9-17.9-4.9-27.7c0-44.2 35.8-80 80-80s80 35.8 80 80zM80 304a48 48 0 1 0 0-96 48 48 0 1 0 0 96zM416 112a48 48 0 1 0 -96 0 48 48 0 1 0 96 0zM368 448a48 48 0 1 0 0-96 48 48 0 1 0 0 96z"/></svg>

<svg xmlns="http://www.w3.org/2000/svg" viewBox="0 0 448 512"><path d="M448 112C448 156.2 412.2 192 368 192C345.1 192 324.4 182.4 309.9 166.1L158.9 242.5C159.6 246.9 160 251.4 160 256C160 260.6 159.6 265.1 158.9 269.5L309.9 345C324.4 329.6 345.1 320 368 320C412.2 320 448 355.8 448 400C448 444.2 412.2 480 368 480C323.8 480 288 444.2 288 400C288 390.3 289.7 380.1 292.9 372.3L147.2 299.5C132.9 321.5 108.2 336 80 336C35.82 336 0 300.2 0 256C0 211.8 35.82 176 80 176C108.2 176 132.9 190.5 147.2 212.5L292.9 139.7C289.7 131 288 121.7 288 112C288 67.82 323.8 32 368 32C412.2 32 448 67.82 448 112L448 112zM79.1 304C106.5 304 127.1 282.5 127.1 256C127.1 229.5 106.5 208 79.1 208C53.49 208 31.1 229.5 31.1 256C31.1 282.5 53.49 304 79.1 304zM368 64C341.5 64 320 85.49 320 112C320 138.5 341.5 160 368 160C394.5 160 416 138.5 416 112C416 85.49 394.5 64 368 64zM368 448C394.5 448 416 426.5 416 400C416 373.5 394.5 352 368 352C341.5 352 320 373.5 320 400C320 426.5 341.5 448 368 448z"/></svg>
